assets/img/discord.svg

<svg fill="none" height="52" viewBox="0 0 68 52" width="68" xmlns="http://www.w3.org/2000/svg"><path d="m56.7751 4.58562c-4.2746-1.96138-8.8585-3.40645-13.6513-4.234095-.0872-.015973-.1744.023945-.2194.103783-.5895 1.048522-1.2425 2.416412-1.6998 3.491572-5.1549-.77175-10.2834-.77175-15.3326 0-.4574-1.09906-1.1341-2.44305-1.7263-3.491572-.045-.077174-.1322-.117093-.2194-.103783-4.7902.825005-9.3741 2.270065-13.6513 4.234095-.0371.01597-.0688.0426-.0899.07718-8.69468 12.9897-11.076519 25.6601-9.908066 38.1734.005287.0613.039652.1198.087237.157 5.736519 4.2128 11.293329 6.7703 16.746929 8.4655.0873.0267.1797-.0053.2353-.0771 1.29-1.7617 2.44-3.6193 3.426-5.5728.0582-.1144.0026-.2501-.1163-.2953-1.824-.692-3.5609-1.5356-5.2316-2.4936-.1322-.0772-.1427-.2662-.0212-.3567.3516-.2635.7033-.5376 1.039-.8144.0607-.0505.1454-.0612.2168-.0292 10.976 5.0112 22.8588 5.0112 33.7053 0 .0714-.0346.156-.0239.2194.0266.3358.2768.6874.5535 1.0416.817.1216.0905.1136.2795-.0185.3567-1.6707.9766-3.4076 1.8016-5.2343 2.4909-.1189.0453-.1718.1836-.1136.298 1.0071 1.9507 2.1571 3.8083 3.4233 5.5701.0529.0745.1481.1065.2353.0798 5.4801-1.6952 11.0369-4.2527 16.7734-8.4655.0502-.0372.082-.0931.0873-.1543 1.3984-14.4668-2.3423-27.0333-9.9161-38.17346-.0185-.03722-.0501-.06385-.0872-.07982zm-34.3635 30.63128c-3.3045 0-6.0274-3.0338-6.0274-6.7596s2.6701-6.7596 6.0274-6.7596c3.3837 0 6.0801 3.0604 6.0272 6.7596 0 3.7258-2.67 6.7596-6.0272 6.7596zm22.2851 0c-3.3044 0-6.0273-3.0338-6.0273-6.7596s2.67-6.7596 6.0273-6.7596c3.3838 0 6.0802 3.0604 6.0274 6.7596 0 3.7258-2.6436 6.7596-6.0274 6.7596z" fill="#fff"/></svg>

<svg width="68" height="52" viewBox="0 0 68 52" fill="none" xmlns="http://www.w3.org/2000/svg">
<path d="M56.7751 4.58562C52.5005 2.62424 47.9166 1.17917 43.1238 0.351525C43.0366 0.335552 42.9494 0.37547 42.9044 0.455308C42.3149 1.50383 41.6619 2.87172 41.2046 3.94688C36.0497 3.17513 30.9212 3.17513 25.872 3.94688C25.4146 2.84782 24.7379 1.50383 24.1457 0.455308C24.1007 0.378134 24.0135 0.338215 23.9263 0.351525C19.1361 1.17653 14.5522 2.62159 10.275 4.58562C10.2379 4.60159 10.2062 4.62822 10.1851 4.6628C1.49042 17.6525 -0.891419 30.3229 0.277034 42.8362C0.282321 42.8975 0.316686 42.956 0.364271 42.9932C6.10079 47.206 11.6576 49.7635 17.1112 51.4587C17.1985 51.4854 17.2909 51.4534 17.3465 51.3816C18.6365 49.6199 19.7865 47.7623 20.7725 45.8088C20.8307 45.6944 20.7751 45.5587 20.6562 45.5135C18.8322 44.8215 17.0953 43.9779 15.4246 43.0199C15.2924 42.9427 15.2819 42.7537 15.4034 42.6632C15.755 42.3997 16.1067 42.1256 16.4424 41.8488C16.5031 41.7983 16.5878 41.7876 16.6592 41.8196C27.6352 46.8308 39.518 46.8308 50.3645 41.8196C50.4359 41.785 50.5205 41.7957 50.5839 41.8462C50.9197 42.123 51.2713 42.3997 51.6255 42.6632C51.7471 42.7537 51.7391 42.9427 51.607 43.0199C49.9363 43.9965 48.1994 44.8215 46.3727 45.5108C46.2538 45.5561 46.2009 45.6944 46.2591 45.8088C47.2662 47.7595 48.4162 49.6171 49.6824 51.3789C49.7353 51.4534 49.8305 51.4854 49.9177 51.4587C55.3978 49.7635 60.9546 47.206 66.6911 42.9932C66.7413 42.956 66.7731 42.9001 66.7784 42.8389C68.1768 28.3721 64.4361 15.8056 56.8623 4.66544C56.8438 4.62822 56.8122 4.60159 56.7751 4.58562ZM22.4116 35.2169C19.1071 35.2169 16.3842 32.1831 16.3842 28.4573C16.3842 24.7315 19.0543 21.6977 22.4116 21.6977C25.7953 21.6977 28.4917 24.7581 28.4388 28.4573C28.4388 32.1831 25.7688 35.2169 22.4116 35.2169ZM44.6967 35.2169C41.3923 35.2169 38.6694 32.1831 38.6694 28.4573C38.6694 24.7315 41.3394 21.6977 44.6967 21.6977C48.0805 21.6977 50.7769 24.7581 50.7241 28.4573C50.7241 32.1831 48.0805 35.2169 44.6967 35.2169Z" fill="white"/>
</svg>
